X: 9
T: Jackie Coleman's
C: Jackie Coleman
Z: tziguk
S: https://thesession.org/tunes/50#setting53313
R: reel
M: 4/4
L: 1/8
K: Dmaj
dB|:AF~F2 EFDE|F2 AF BFAF|E2 BE dEBE|ABde fedB|
AF~F2 EFDE|F2 AF BFAF|E2 BE dEBE|1 ABde fedB:|2 ABde fdde||
|:fddc d2 de|fddc dfaf|eA (3cBA eAfA|eA (3cBA efge|
fddc d3 e|fddc dfaf|g2 gf gbag|1 (3fga eg fdde:|2 (3fga eg fddB||

%-------------------- TUNE SEPARATOR --------------------%

